src/assets/logos/JS.svg

<svg width="48" height="63" viewBox="0 0 48 63" fill="none" xmlns="http://www.w3.org/2000/svg">
<path d="M35.4084 19.9454C35.1811 17.6537 34.2057 15.8734 32.4822 14.6045C30.7588 13.3355 28.4197 12.701 25.4652 12.701C23.4576 12.701 21.7625 12.9851 20.38 13.5533C18.9974 14.1026 17.9368 14.8696 17.1982 15.8545C16.4785 16.8393 16.1186 17.9567 16.1186 19.2067C16.0807 20.2484 16.2985 21.1575 16.772 21.934C17.2644 22.7105 17.9368 23.3829 18.7891 23.951C19.6413 24.5003 20.6262 24.9832 21.7436 25.3999C22.861 25.7976 24.0542 26.1385 25.3232 26.4226L30.5504 27.6726C33.0883 28.2408 35.4179 28.9984 37.5391 29.9454C39.6603 30.8923 41.4974 32.0571 43.0504 33.4397C44.6035 34.8223 45.8061 36.451 46.6584 38.326C47.5296 40.201 47.9747 42.3507 47.9936 44.7749C47.9747 48.3355 47.0656 51.4226 45.2663 54.0363C43.486 56.631 40.9103 58.648 37.5391 60.0874C34.1868 61.5079 30.1432 62.2181 25.4084 62.2181C20.7114 62.2181 16.6205 61.4984 13.1357 60.059C9.66974 58.6196 6.96141 56.4889 5.01065 53.667C3.07884 50.826 2.06558 47.3128 1.97088 43.1272H13.8743C14.0069 45.0779 14.5656 46.7067 15.5504 48.0135C16.5542 49.3014 17.8894 50.2768 19.5561 50.9397C21.2417 51.5836 23.1451 51.9056 25.2663 51.9056C27.3497 51.9056 29.1584 51.6026 30.6925 50.9965C32.2455 50.3904 33.4482 49.5476 34.3004 48.4681C35.1527 47.3885 35.5788 46.148 35.5788 44.7465C35.5788 43.4397 35.1906 42.3412 34.4141 41.451C33.6565 40.5609 32.5391 39.8033 31.0618 39.1783C29.6035 38.5533 27.8137 37.9851 25.6925 37.4738L19.3572 35.8829C14.4519 34.6897 10.5788 32.8241 7.73793 30.2863C4.89702 27.7484 3.48603 24.3298 3.50497 20.0306C3.48603 16.5079 4.42353 13.4302 6.31747 10.7976C8.23035 8.16506 10.8535 6.11013 14.1868 4.63286C17.5201 3.15559 21.308 2.41695 25.5504 2.41695C29.8686 2.41695 33.6375 3.15559 36.8572 4.63286C40.0959 6.11013 42.6148 8.16506 44.4141 10.7976C46.2133 13.4302 47.1413 16.4795 47.1982 19.9454H35.4084Z" fill="#13AB1E"/>
<path d="M28.3523 1.14573H40.5114V41.7139C40.5114 45.4639 39.6686 48.7215 37.983 51.4866C36.3163 54.2518 33.9962 56.3825 31.0227 57.8787C28.0492 59.3749 24.5928 60.123 20.6534 60.123C17.1496 60.123 13.9678 59.5075 11.108 58.2764C8.26705 57.0264 6.01326 55.1325 4.34659 52.5946C2.67992 50.0378 1.85606 46.8275 1.875 42.9639H14.1193C14.1572 44.498 14.4697 45.8143 15.0568 46.9128C15.6629 47.9923 16.4867 48.8257 17.5284 49.4128C18.589 49.981 19.839 50.265 21.2784 50.265C22.7936 50.265 24.072 49.9431 25.1136 49.2991C26.1742 48.6363 26.9792 47.6703 27.5284 46.4014C28.0777 45.1325 28.3523 43.57 28.3523 41.7139V1.14573Z" fill="#AB134D"/>
</svg>

<svg width="48" height="63" fill="none" xmlns="http://www.w3.org/2000/svg"><path d="M35.408 19.945c-.227-2.291-1.202-4.072-2.926-5.34-1.723-1.27-4.062-1.904-7.017-1.904-2.007 0-3.703.284-5.085.852-1.383.55-2.443 1.317-3.182 2.301-.72.985-1.08 2.103-1.08 3.353-.037 1.041.18 1.95.654 2.727.492.776 1.165 1.449 2.017 2.017.852.55 1.837 1.032 2.955 1.449 1.117.398 2.31.739 3.58 1.023l5.226 1.25c2.538.568 4.868 1.325 6.99 2.272 2.12.947 3.957 2.112 5.51 3.495a14.523 14.523 0 0 1 3.608 4.886c.872 1.875 1.317 4.025 1.336 6.449-.02 3.56-.928 6.648-2.728 9.261-1.78 2.595-4.356 4.612-7.727 6.051-3.352 1.42-7.396 2.131-12.13 2.131-4.698 0-8.788-.72-12.273-2.159-3.466-1.44-6.175-3.57-8.125-6.392-1.932-2.841-2.945-6.354-3.04-10.54h11.903c.133 1.95.692 3.58 1.676 4.886 1.004 1.288 2.34 2.264 4.006 2.927 1.686.644 3.59.966 5.71.966 2.084 0 3.892-.303 5.427-.91 1.552-.606 2.755-1.448 3.607-2.528.853-1.08 1.279-2.32 1.279-3.722 0-1.306-.388-2.405-1.165-3.295-.758-.89-1.875-1.648-3.352-2.273-1.459-.625-3.248-1.193-5.37-1.704l-6.335-1.591c-4.905-1.193-8.778-3.059-11.62-5.597-2.84-2.538-4.251-5.956-4.232-10.255-.019-3.523.919-6.6 2.812-9.233 1.913-2.633 4.537-4.688 7.87-6.165 3.333-1.477 7.121-2.216 11.363-2.216 4.319 0 8.088.739 11.307 2.216 3.239 1.477 5.758 3.532 7.557 6.165 1.8 2.632 2.727 5.682 2.784 9.147h-11.79z" fill="#13AB1E"/><path d="M28.352 1.146h12.16v40.568c0 3.75-.843 7.008-2.529 9.773-1.667 2.765-3.987 4.895-6.96 6.392-2.974 1.496-6.43 2.244-10.37 2.244-3.503 0-6.685-.615-9.545-1.847-2.841-1.25-5.095-3.144-6.761-5.681-1.667-2.557-2.49-5.767-2.472-9.631h12.244c.038 1.534.35 2.85.938 3.949.606 1.08 1.43 1.913 2.471 2.5 1.061.568 2.311.852 3.75.852 1.516 0 2.794-.322 3.836-.966 1.06-.663 1.865-1.629 2.414-2.898.55-1.269.824-2.831.824-4.687V1.146z" fill="#AB134D"/></svg>
